!!!OTL: Laemmerweide
!!!ARE: Europa, Mitteleuropa, Deutschland
!!!SCT: A0056B
!!!YEM: Copyright 1995, estate of Helmut Schaffrath.
**kern
*ICvox
*Ivox
*M4/2
*k[b-]
*d:
{1a
=1
2b-
2a
2b-
2dd
=2
2ccn
2b-
1a}
=3
{2r
2a
2dd
2dd
=4
2ccn
2a
2b-
2g
=5
1fn
1ccn}
=6
{2r
2a
2ccn
2b-
=7
2a
2g
2fn
2d
=8
1cn
2r}
{2ccn
=9
2a
2a
2b-
2ccn
=10
1dd
1a}
=11
{2r
2dd
2ccn
2b-
=12
2a
2g
4fn
4d
2e
=13
1d}
==
!!!AGN: Romanze, Ballade, Lied
!! "Christ ist erstanden" Melodie in Koephls Gsgb. Strassb. 1537.
!!    Boehme will hiermit nachweisen, dass A0056A die bessere volketuemliche
!!    Lesart eines Volksliedes ist, das als geistliches Lied weltlichen
!!    Ursprung hat.
!!!ONB: ESAC (Essen Associative Code) Database: ALTDEU
!!!AMT: simple quadruple
!!!AIN: vox
!!!EED: Helmut Schaffrath
!!!EEV: 1.0
*-
